packages/tokens/icons/cloudDown/size32Px.svg

<svg viewBox="0 0 32 32" fill="none" xmlns="http://www.w3.org/2000/svg" width="1em" height="1em"><path d="M15.4428 15.5L15.4428 25.5" stroke="currentColor" stroke-linecap="round" stroke-linejoin="round"/><path d="M20.4427 21.6L15.4427 26.5L10.4427 21.6" stroke="currentColor" stroke-linecap="round" stroke-linejoin="round"/><path d="M24.1668 21.5C26.8751 21.5 28.5001 19.1707 28.5001 16.7C28.5001 14.2293 26.6042 12.1946 24.1667 11.9293C24.1746 8.43025 21.2269 5.5 17.6668 5.5C14.4458 5.5 11.772 7.8068 11.2565 10.8341C8.68212 10.7928 6.37006 12.6143 5.85812 15.1017C4.04745 15.0435 2.50012 16.5146 2.50012 18.3C2.50012 20.0673 3.9552 21.5 5.75012 21.5H6.83346" stroke="currentColor" stroke-linecap="round" stroke-linejoin="round"/></svg>

<svg xmlns="http://www.w3.org/2000/svg" fill="none" viewBox="0 0 32 32" width="1em" height="1em"><path stroke="currentColor" stroke-linecap="round" stroke-linejoin="round" d="M15.443 15.5v10m5-3.9-5 4.9-5-4.9m13.724-.1c2.708 0 4.333-2.33 4.333-4.8 0-2.47-1.896-4.505-4.333-4.77.008-3.5-2.94-6.43-6.5-6.43-3.221 0-5.895 2.307-6.41 5.334-2.575-.041-4.887 1.78-5.399 4.268C4.048 15.043 2.5 16.515 2.5 18.3c0 1.767 1.455 3.2 3.25 3.2h1.083"/></svg>
